X:1
T:Beati omnes - Fux
T:#
%%score [ 1 2 3 4 ]
L:1/8
Q:1/4=200
M:none
K:C
V:1 treble nm="Soprano" snm="S"
V:2 treble nm="Alto" snm="A"
V:3 treble-8 nm="Tenor" snm="T"
V:4 bass nm="Bass" snm="B"
V:1
"^Beati omnes""^Johann Joseph Fux\n (1660-1741)""^Psalm 128 (Vulgate 127)" G4 G8 G4 | A8 G4 G4 | %2
w: Be- a- ti|o- mnes, qui|
 A2 B2 c8 B4 | c4 e4 e4 (d2 c2) | B4 B8 A4 |[M:4/2] G4 (A2 B2) c4 B4 | A8 G8 | z4 B4 B4 B4 | %8
w: ti- ment Do- mi-|num: qui am- bu\- *|lant, am- bu-|lant in * vi- is|e- ius.|La- bo- res|
 c6 c2 c4 c4- | c4 B4 A4 G4 | F8 E8 | z8 z4 G4- | G4 A4 B6 c2 | d8 c4 c4 | d4 B4 c4 (c2 B2) | %15
w: ma- nu- um ma\-|* nu- um tu-|a- rum|qui\-|* a man- du-|ca- bis: be-|a- tus es, be\- *|
 A4 G4 G4 c4 | B8 A4 B4- | B2 A2 (A8 ^G2 ^F2 | ^G8) A4 A4- | A4 A4 (G6 A2) | B4 d8 c4 | B8 A4 c4- | %22
w: a- tus es, et|be- ne ti\-|* bi e\- * *|* rit. U\-|* xor tu\- *|a si- cut|vi- tis, vi\-|
 c2 c2 B4 A8 | G8 z8 | z16 | z8 z4 G4- | G2 G2 A4 _B8 | A4 A4 A4 F4 | A4 B4 c2 G2 c4- | %29
w: * tis a- bun-|dans.||Fi\-|* li- i tu-|i si- cut no-|vel- lae o- li- va\-|
 (c4 B4) c8 | z16 | z16 | A8 B4 c4 | B4 c2 d2 e6 d2 | c8 G8 | z4 A4 A4 B2 c2 | d6 c2 (B4 c4- | %37
w: * * rum.|||Ec- ce sic|be- ne- di- ce- tur|ho- mo,|sic be- ne- di-|ce- tur ho\- *|
 c4) B4 z8 | z8 G8 | A8 B8 | (c12 B4) | A6 A2 G8 | z4 B8 B4 | e6 d2 c8- | c4 B4 A6 A2 | G4 G4 A8 | %46
w: * mo:|qui|ti- met|Do\- *|* mi- num.|Be- ne-|di- cat ti\-|* bi Do- mi-|nus ex Si-|
 ^G8 z8 | z16 | z4 d4 d6 c2 | B4 B4 B4 B4 | c6 B2 A8 | B6 A2 ^G4 G4 | A2 E2 A6 A2 ^G4 | A8 z4 A4 | %54
w: on:||et vi- de-|as bo- na Je-|ru- sa- lem|o- mni- bus di-|e- bus vi- tae tu-|ae. Et|
 d6 c2 B8 | G4 G4 A4 A4- | A4 A4 (A4 B4) | c4 c4 c8- | (c4 B2 A2) B8 | z4 e6 d2 d4- | d2 c2 c8 B4 | %61
w: vi- de- as|fi- li- os fi\-|* li- o\- *|rum tu- o\-|* * * rum,|pa- cem su\-|* per Is ra-|
 !fermata!c16 || z8 (G8 | B8 d8-) | (d4 c2 B2 c6) c2 | (B2 A2) (G8 ^F4) | G4 (d8 c2 B2) | %67
w: el.|Glo\-||* * * * ri-|a * Pa\- *|tri, Pa\- * *|
 c2 G2 c8 B4 | c16 | z16 | z8 z4 c4 | c4 c4 B4 c4 | (A4 G8 ^F4) | G4 G8 G4 | G8 G4 G4- | %75
w: tri et Fi- li-|o,||et|Spi- ri- tu- i|san\- * *|cto: Si- cut|e- rat in|
 G4 G4 G6 G2 | G12 G4 | d12 (c2 B2) | (A2 E2 A8 ^G4) | A8 z8 | z8 z4 c4- | c4 B4 A6 A2 | %82
w: * prin- ci- pi-|o, et|nunc, et *|sem\- * * *|per,|et|* in sae- cu-|
 G4 A6 B2 (c4- | c4 B4) c8 | z16 | z4[Q:1/4=198] (G4[Q:1/4=194] A4[Q:1/4=191] B4 | %86
w: la sae- cu- lo\-|* * rum,||A\- * *|
[Q:1/4=186] c6[Q:1/4=183] _B2[Q:1/4=179] A8- |[Q:1/4=173] A8)[Q:1/4=170] !fermata!G16 |] %88
w: |* men.|
V:2
 E4 E8 E4 | F8 E4 G4 | F4 (E2 F2) G6 G2 | G8 z4 G4 | G4 (F2 E2) D4 (E2 F2) |[M:4/2] G8 G4 (G4- | %6
w: Be- a- ti|o- mnes, qui|ti- ment * Do- mi-|num: qui|am- bu\- * lant in *|vi- is e\-|
 G4 ^F4) G8 | z4 G4 G4 G4 | A6 A2 G4 G4- | G4 G4 F4 E4 | D8 C4 C4- | C4 D4 E6 F2 | (G16 | %13
w: * * ius.|La- bo- res|ma- nu- um ma\-|* nu- um tu-|a- rum qui\-|* a man- du-|ca\-|
 ^F4 ^G4) A8 | z8 z4 C4 | F4 D4 E4 E4 | F4 G4 A4 F4 | E8 E8 | z4 E8 E4 | (C6 D2) E4 G4- | %20
w: * * bis:|be-|a- tus es, et|be- ne ti- bi|e- rit.|U- xor|tu\- * a si\-|
 G4 F4 E8 | (D6 E2 F4) E4 | D2 D2 (G8 ^F4) | G8 z8 | z4 D6 D2 E4 | F8 E4 E4 | E4 C4 D4 E4 | %27
w: * cut vi-|tis, * * vi-|tis a- bun\- *|dans.|Fi- li- i|tu- i si-|cut no- vel- lae|
 F6 E2 (D4 A4- | A4 G2 F2 E4 D2 C2) | D8 C8 | z16 | z8 G8 | F4 F4 D4 E2 F2 | G8 G8- | G8 z4 C4 | %35
w: o- li- va\- *||* rum.||Ec-|ce sic be- ne- di-|ce- tur,|* sic|
 C4 D2 E2 F8- | F4 F4 (G2 F2 E4- | E4) D4 z8 | z8 z4 C4- | C4 D8 E4- | E4 (A2 G2 ^F4 G4-) | %41
w: be- ne- di- ce\-|* tur ho\- * *|* mo:|qui|* ti- met|* Do\- * * *|
 G4 ^F4 G4 D4- | D4 D4 G8 | G8 A2 G2 F4- | F4 G4 C4 F4- | F4 (E8 D4) | E8 z8 | z4 A4 A6 G2 | %48
w: * mi- num. Be\-|* ne- di-|cat ti- bi Do\-|* mi- nus ex|* Si\- *|on:|et vi- de-|
 F4 F4 D4 D4 | G6 G2 G4 G4- | G4 G4 F4 F4 | F4 F4 E4 E4 | E8 E8 | z4 E4 A6 G2 | F8 D4 D4 | %55
w: as bo- na Je-|ru- sa- lem o\-|* mni- bus di-|e- bus vi- tae|tu- ae.|Et vi- de-|as fi- li-|
 E8 C4 C4 | (F2 G2 A8 G2 F2) | G4 G4 G8 | G16 | z4 G6 F2 (F4- | F2 E2) E4 D6 D2 | !fermata!E16 || %62
w: os fi- li-|o\- * * * *|rum tu- o-|rum,|pa- cem su\-|* * per Is ra-|el.|
 (C8 E8 | G12) G4 | G12 (G4- | G2 F2 E8 C4) | D8 G8 | G4 A4 F6 F2 | E16 | z4 A4 A4 A4 | %70
w: Glo\- *|* ri-|a Pa\-||tri, Pa-|tri et Fi- li-|o,|et Spi- ri-|
 G4 A4 (F4 E4- | E2 D2 E2 F2 G4 E4- | E4 D2 C2 D8) | D8 z4 D4- | D4 D4 D8 | D4 D8 D4 | D6 D2 D8 | %77
w: tu- i san\- *|||cto: Si\-|* cut e-|rat in prin-|ci- pi- o,|
 z4 B,4 E8- | E4 F4 E8 | E16 | z8 z4 A4- | A4 G4 F6 F2 | E4 F8 E4 | D8 C8 | z4 (E4 F4 G4 | %85
w: et nunc,|* et sem-|per,|et|* in sae- cu-|la sae- cu-|lo- rum,|A\- * *|
 A4 G4 F8) | G4 (G8 F2 E2 | F8) !fermata!E16 |] %88
w: |men, A\- * *|* men.|
V:3
 c4 c8 c4 | c8 c4 c4 | c4 c4 d6 d2 | e8 z8 | z4 B4 B4 (c2 d2) |[M:4/2][K:treble-8] e6 e2 e4 d4 | %6
w: Be- a- ti|o- mnes, qui|ti- ment Do- mi-|num:|qui am- bu\- *|lant in vi- is|
 d8 d4 d4 | d12 d4 | f6 f2 c4 e4- | e4 e4 c4 c4 | A8 A4 A4- | A4 B4 c6 d2 | (e8 d8- | d8) e8 | %14
w: e- ius. La-|bo- res|ma- nu- um ma\-|* nu- um tu-|a- rum qui\-|* a man- du-|ca\- *|* bis:|
 z8 z4 c4 | d4 B4 c4 c4 | d8 c4 d4- | d4 c4 (B6 A2 | B8) A8 | z16 | z16 | z16 | z8 d4 d4 | %23
w: be-|a- tus es, et|be- ne ti\-|* bi e\- *|* rit.||||In la-|
 e6 d2 c4 (e4- | e4 d2 c2) B4 (c4- | c4 B4) c8- | c8 z8 | z16 | z16 | z8 c4 c4 | d6 c2 B4 e4- | %31
w: te- ri- bus do\-|* * * mus tu\-|* * ae.||||In cir-|cu- i- tu men\-|
 e2 d2 (d8 ^c4) | d8 z8 | z8 e8 | e4 E4 E4 F2 G2 | (A4 B2 c2 d6) c2 | (B6 A2) G8 | z4 G8 A4- | %38
w: * sae tu\- *|ae.|Ec-|ce sic be- ne- di-|ce\- * * * tur|ho\- * mo,|qui ti\-|
 A4 B8 (c2 B2 | A6) A2 G4 G4 | C4 (c2 B2) (A4 B2 c2) | d6 c2 B4 B4- | B4 B4 e4 B4 | c4 B4 (A6 B2 | %44
w: * met Do\- *|* mi- num, qui|ti- met * Do\- * *|* mi- num. Be\-|* ne- di- cat|ti- bi Do\- *|
 c4) e4 A4 c4- | c4 (c8 A4) | B4 e4 e6 d2 | c4 c4 c4 c4 | d6 c2 B8 | z4 d4 d4 d4 | e6 d2 c8 | %51
w: * mi- nus ex|* Si\- *|on: et vi- de-|as bo- na Je-|ru- sa- lem,|bo- na Je-|ru- sa- lem|
 d6 c2 B2 B2 B2 B2 | c4 c4 B8 | A8 z8 | z8 z4 G4 | c6 B2 A8 | d2 e2 f8 e2 d2 | e8 e4 e4 | e8 d8 | %59
w: o- mni- bus di- e- bus|vi- tae tu-|ae.|Et|vi- de- as|fi- li- os fi- li-|o- rum tu-|o- rum,|
 c8 A8 | G4 G4 G6 G2 | !fermata!G16 || z16 | (G8 B8) | e12 e4 | (d4 B4) c8 | B4 (B8 c2 d2) | %67
w: pa- cem|su- per Is ra-|el.||Glo\- *|* ri-|a * Pa-|tri, Pa\- * *|
 e4 c4 d6 d2 | G4 c4 c4 c4 | B4 c4 (A2 B2 c2 d2) | (e4 A4 B4 c4- | c2 B2 A4) G8 | %72
w: tri et Fi- li-|o, et Spi- ri-|tu- i san\- * * *||* * * cto,|
 (^F2 GA B2 G2 A8) | B8 z4 B4- | B4 B4 B8 | B4 B8 B4 | B6 B2 B8 | z8 G4 c4- | c4 c4 B8 | A4 c8 B4 | %80
w: san\- * * * * *|cto: Si\-|* cut e-|rat in prin-|ci- pi- o,|et nunc,|* et sem-|per, et in|
 A6 A2 G4 A4- | A4 B4 (c4 d4) | (e4 c4 d4) G4 | z8 z4 (G4 | A4 B4 c4 B4) | c4 (e4 f4 e2 d2 | %86
w: sae- cu- la sae\-|* cu- lo\- *|* * * rum,|A\-||men, A\- * * *|
 e6 d2 c8- | c8) c16 |] %88
w: |* men.|
V:4
 C,8 C,4 C,4 | F,8 C,4 E,4 | F,4 A,4 G,6 G,2 | C,4 C4 C4 (B,2 A,2) | G,4 G,8 F,4 | %5
w: Be- a- ti|o- mnes, qui|ti- ment Do- mi-|num: qui am- bu\- *|lant, am- bu-|
[M:4/2] E,4 D,4 C,4 G,,4 | D,8 G,,8 | z4 G,4 G,4 G,4 | F,6 F,2 E,4 C,4- | C,4 E,4 F,4 C,4 | %10
w: lant in vi- is|e- ius.|La- bo- res|ma- nu- um ma\-|* nu- um tu-|
 D,8 A,,8 | z8 z4 E,4- | E,4 F,4 G,6 A,2 | B,8 A,4 A,4 | B,4 ^G,4 A,4 A,4 | F,4 G,4 C,4 A,,4 | %16
w: a- rum|qui\-|* a man- du-|ca- bis: be-|a- tus es, be-|a- tus es, et|
 D,4 E,4 F,4 D,4 | E,16- | E,8 A,,8 | z16 | z16 | z16 | z16 | G,4 G,4 A,6 G,2 | F,8 G,4 E,4 | %25
w: be- ne ti- bi|e\-|* rit.|||||In la- te- ri-|bus do- mus|
 D,8 C,8- | C,8 z8 | z16 | z16 | G,4 G,4 A,6 G,2 | F,4 A,8 G,4 | (F,8 E,8) | D,8 z8 | z8 C8 | %34
w: tu- ae.||||In cir- cu- i-|tu men- sae|tu\- *|ae.|Ec-|
 C,4 C,4 C,4 D,2 E,2 | (F,6 E,2 D,8) | D,8 (E,6 F,2 | G,4) G,,4 C,8 | D,8 E,8 | (F,8 G,8 | %40
w: ce sic be- ne- di-|ce\- * *|tur ho\- *|* mo, qui|ti- met|Do\- *|
 A,4) A,,4 D,8 | D,4 D,4 G,8 | G,8 E,6 D,2 | (C,4 E,4 F,6 G,2 | A,4 G,4 F,6) F,2 | C,4 C,4 F,8 | %46
w: * mi- num.|Be- ne- di-|cat ti- bi|Do\- * * *|* * * mi-|nus ex Si-|
 E,8 z4 A,4 | A,6 G,2 F,4 F,4 | D,4 D,4 G,4 G,4 | G,4 G,4 G,4 G,4 | E,6 E,2 F,8 | %51
w: on: et|vi- de- as bo-|na Je- ru- sa-|lem, bo- na Je-|ru- sa- lem|
 D,6 D,2 E,2 E,2 E,2 E,2 | C,4 A,,4 E,8 | A,,8 z8 | z4 D,4 G,6 F,2 | E,8 F,6 E,2 | D,4 D,8 D,4 | %57
w: o- mni- bus di- e- bus|vi- tae tu-|ae.|Et vi- de-|as fi- li-|os fi- li-|
 (C,6 D,2) E,6 F,2 | G,8 G,,8 | C,8 D,8 | E,4 C,4 G,4 G,,4 | !fermata!C,16 || z16 | z16 | %64
w: o\- * rum tu-|o- rum,|pa- cem|su- per Is ra-|el.|||
 (C,8 E,8 | G,3) G, G,4 A,8 | G,8 E,8 | E,4 F,4 D,6 D,2 | C,16 | z4 F,4 F,4 F,4 | %70
w: Glo\- *|* ri- a Pa-|tri, Pa-|tri et Fi- li-|o,|et Spi- ri-|
 E,4 F,4 (D,4 C,2 B,,2 | A,,2 B,,2 C,2 D,2 E,4 C,4 | D,16) | G,,8 z4 G,4- | G,4 G,4 G,8 | %75
w: tu- i san\- * *|||cto: Si\-|* cut e-|
 G,4 G,8 G,4 | G,6 G,2 G,8 | z4 G,,4 C,8- | C,4 D,4 E,8 | A,,4 A,8 G,4 | F,6 F,2 E,4 F,4- | %81
w: rat in prin-|ci- pi- o,|et nunc,|* et sem-|per, et in|sae- cu- la sae\-|
 F,4 G,4 (A,4 B,4) | (C4 F,2 E,2 D,4 C,4 | G,8) C,4 (E,4 | F,4 G,4 A,4 G,4 | F,4 E,4 D,8) | %86
w: * cu- lo\- *||* rum, A\-|||
 C,8 F,8- | F,8 C,16 |] %88
w: men, A\-|* men.|

